X: 12574
T: Farewell To Spain
R: waltz
M: 3/4
K: Bminor
||F2|F2 B2 A2|B4 Bc|d2 e2 c2|BA F4|F4 E2|F2 B2 A2|B4 Bc|d2 e2
d2|c6|c4 F2|F2 B2 BA|B4 Bc|d3 c B2|A2 F4|F4 E2|F2 B2 A2|B4 bc|
d3 e d2|c6|c4 de|f2 d2 f2|e4 de|f2 B2 Bc|BA F2 FE|DE F2 B2|A2 F2
E2|D3 E F2|F2 B2 A2|B6|B4 A2|d2 f2 a2|e4 de|f2 B2 dc|BA F2 FE|
DE F2 B2|A2 F2 E2|D3 E F2|F2 B2 A2|B4||

